src/main/resources/icons/AllIcons/nodes/windows.svg

<svg width="16" height="16" viewBox="0 0 16 16" fill="none" xmlns="http://www.w3.org/2000/svg">
<path fill-rule="evenodd" clip-rule="evenodd" d="M7.44479 3.61741L13.0001 3.00015V7.44453H7.44479V3.61741ZM6.3337 3.74086L3.00024 4.11125V7.44453H6.3337V3.74086ZM6.3337 8.55563H3.00024V11.8889L6.3337 12.2593V8.55563ZM7.44479 12.3827L13.0001 13V8.55563H7.44479V12.3827Z" fill="#0EAAE5"/>
</svg>

<svg width="16" height="16" viewBox="0 0 16 16" fill="none" xmlns="http://www.w3.org/2000/svg"><rect id="frame" width="16" height="16" fill="none"/><path fill-rule="evenodd" clip-rule="evenodd" d="M7.445 3.617L13 3v4.445H7.445V3.617zm-1.111.124L3 4.11v3.334h3.334V3.74zm0 4.815H3v3.333l3.334.37V8.556zm1.11 3.827L13 13V8.556H7.445v3.827z" fill="#0EAAE5"/></svg>
